X:1
T:Title
%%score { 1 | ( 2 3 ) }
L:1/8
Q:1/4=100
M:4/4
K:C
V:1 treble nm="Grand Piano"
V:2 bass 
V:3 bass 
V:1
 c2 E>A G2 E>E | FGAB c2 G2 | A2 A>A [^FA] [Fd]2 [Fc] | B2 c2 d4 | %4
w: C.~Austin~Miles * * * * *||||
 [Ge]2 [Ec]>[FA] [EG]2 [Ec]>[Ec] | dcBA [EG]2 E2 | A2 A>A [EG] [Ec]2 [Ec] | [Ec]2 [DB]2 [Ec]4 | %8
w: ||||
 [EG]2 [EG]>[EG] [EG]EGc | [EG]2 [EG]>[EG] [EG]EGc | B2 B>B B2 AB | [Ec]2 [Ec]>[FA] [EG]4 | %12
w: ||||
 [CEGc]2 [CEGc]>[CEGc] [_B,CEG_B]2 [CEGBc]>[CEGBc] | %13
w: |
 [CFAc]2 [CFAc]>[CFAc] [C_E^F^Gc]2 [CEFGc]>[CEFGc] | G2 G>G G G2 A | B2 d2 [Ec]4 |] %16
w: |||
V:2
 C2 E,>A, G,2 E,>E, | F,G,A,B, C2 G,2 | [F,CF]2 [F,CF]>[F,CF] [D,D] [D,A,]2 [D,D] | %3
 [G,DF]2 [G,CE]2 [G,B,F]4 | [C,C]2 [C,G,]>[C,C] [C,C]2 [C,G,]>[C,G,] | %5
 [F,A,F]2 [F,CF]2 [C,C]2 [C,G,C]2 | [F,C]2 [F,CF]>[F,CF] [C,C] [C,G,]2 [C,G,] | %7
 [G,,G,]2 [G,,G,]2 [C,G,]4 | [C,C]2 [C,C]>[C,C] .[C,C]2 z2 | [C,C]2 [C,C]>[C,C] .[C,C]2 z2 | %10
 [G,DF]2 [G,DF]>[G,DF] [G,DF]2 [G,DF][G,DF] | z4 C4 | C,2 C,>C, B,,2 [B,,_B,]>[B,,B,] | %13
 [A,,A,]2 [A,,A,]>[A,,A,] [^G,,^G,]2 [G,,G,]>[G,,G,] | %14
 [G,CE]2 [G,CE]>[G,CE] [G,DF] [G,DF]2 [G,DF] | [G,DF]2 [G,B,F]2[K:bass] [C,C]4 |] %16
V:3
 x8 | x8 | x8 | x8 | x8 | x8 | x8 | x8 | x8 | x8 | x8 | [C,C]2 [C,C]>[C,C] C,-[C,-E,][C,-G,][C,C] | %12
 x8 | x8 | x8 | x4[K:bass] x4 |] %16

